X:0691
T:The Lilly.
M:6/8
L:1/8
Q:3/8=104
I: :| :|
Z:Jack Campin * www.campin.me.uk * 2009
K:D
A   |Add def|g2g g2e   |(f/g/a)f ged|c(e/d/c/B/) A2
A   |Add def|g2g g2e   | f/g/af  ged|ddd         d2:|
f/g/|afd dcd|ecA A2f/g/| afd     dcd|Ace         g2
e   |faf eae|dad cac   | Bgf     edc|ddd         d2:|
<end>
<start>
